X: 78
T:San Pelaio (2ª voz)
M:2/4
L:1/16
Q:200
C:Trad.
R:Pasodoble
K:C
G4 E2C2 | G4 E2C2 | G4 {C}G4- | G2E2D2C2 | G4 E2C2 | G4 E2G2 | F4 {C}F4-
 | F8 | A4 G2F2 | E4 D2C2 | 
G4 {C}G4- | G2E2D2C2 | F4 {C}F4- | F2D2B,2D2 |1  {B,}C8- | C8 :|2 |: {B,
}C8- | C"F."G C2D2E2 | F2GF E4- | E2C2D2E2 |
F2GF E4- | E2C2D2E2 | F6 G2 | F2E2D2C2 |E2FE D4- | D2B,2C2D2 | E2FE D4-
| D2B,2C2D2 |E2FE D4- | D2B,2C2D2 |
G6 A2 |G2F2E2D2 :| {B,}C8- | "D.C."C8 ||

